X:12
T:LADY BELHAVEN'S -- REEL.
R:reel
C:SCOTCH.
B:Coles
Z:John Walsh <walsh:mat:h.ubc.ca>
M:C|
L:1/8
K:G
uc|vBG (3GGG dBgd|uBG (3GGG cAFA|vBG (3GGG dB(uga)|vbfgd BGG uc|\
vBG (3GGG dBgd|uBG (3GGG cAFA|vBG (3GGG dB(uga)|vbfgd BGG|]
ug|((3vefg) (dg) cgBg|A=ffc (A=F)Ff|((3e^fg) (dg) cgBg|Afgd BGGg|
((3vefg) (dg) cgBg|A=ffc (AF)Ff|ge=fd ecdB|Ag^fa gGG|]
